icons/1_Primary/TU Berlin.svg

<svg width="1024" height="1024" viewBox="0 0 1024 1024" fill="none" xmlns="http://www.w3.org/2000/svg">
<g clip-path="url(#clip0_2_3744)">
<path d="M512 1024C794.77 1024 1024 794.77 1024 512C1024 229.23 794.77 0 512 0C229.23 0 0 229.23 0 512C0 794.77 229.23 1024 512 1024Z" fill="#FF837D"/>
<path d="M286.35 320.4C264.97 320.4 232.75 342.09 232.75 377.92C232.75 422.18 272.06 437.37 285.61 437.37H503.56V437.47L487.5 604.91C484.5 644.97 499.58 665.54 508.89 676.35C525.89 696.19 557.4 711.74 593.6 718.25C594.6 707.59 625.87 383.57 625.87 383.49C626.87 366.84 622.1 352.32 611 339.67C598 324.86 578.95 320.41 571 320.41L286.35 320.4ZM651.35 354.31C651.35 354.31 616.17 720.17 616.26 720.17C648.38 720.17 671.41 710.61 689.31 698.63C706 687.45 719 674.19 728.9 657.1C738.749 640.426 744.837 621.802 746.74 602.53L770.35 354.32L651.35 354.31ZM715.61 378.31H744.25L743.44 387.11V386.89H717.15C712.04 386.89 708.86 388.3 708.42 393.04C707.66 399.25 713.89 403.85 722.11 403.85H741.8L740.92 412.74H700.05L700.84 404.29C703 404.29 706.55 404.29 708.84 405.03C703.84 402.58 700.62 397.56 701.36 390.59C702.25 381.19 708.47 378.31 715.58 378.31H715.61ZM686.23 423.54C686.951 423.533 687.665 423.682 688.323 423.976C688.981 424.271 689.567 424.704 690.042 425.246C690.517 425.789 690.869 426.427 691.074 427.118C691.279 427.809 691.332 428.537 691.23 429.25C691.155 430.803 690.48 432.266 689.348 433.331C688.216 434.396 686.714 434.98 685.16 434.96C684.439 434.968 683.725 434.819 683.067 434.525C682.409 434.23 681.823 433.797 681.348 433.255C680.873 432.712 680.521 432.074 680.316 431.382C680.111 430.691 680.058 429.964 680.16 429.25C680.14 426.13 683.16 423.53 686.21 423.53L686.23 423.54ZM698.88 424.86H739.8L738.9 433.76H698L698.88 424.86ZM677.65 445.86H737.76L736.87 454.76H676.73L677.65 445.86ZM359.65 461.28C359.65 461.28 340.65 657.28 337.96 686.46V686.56H443.84L465.53 461.31L359.65 461.28ZM694.56 462.6L703.01 463.34C703.04 463.162 703.091 462.988 703.16 462.82V463.35H703C701 471.21 706.36 475.05 718.39 475.05H734.97L734 484H693.16L693.97 475.48C696.979 475.369 699.99 475.665 702.92 476.36C697.6 474.52 692.92 470.36 694.49 462.67L694.56 462.6ZM708.49 493.83H713.49V494.21L710.97 520.41C720.29 520.41 724.73 516.71 725.56 508.26C726.135 504.252 725.723 500.164 724.36 496.35L731.25 495.15C732.579 499.919 733.006 504.895 732.51 509.82C731.25 522.54 724.07 529.58 709.64 529.58C697.35 529.58 688.76 522.47 689.87 510.58C690.98 498.69 699.1 493.85 708.42 493.85L708.49 493.83ZM706.56 502.73C700.78 502.73 696.86 505.85 696.34 511.02C695.59 516.02 699.23 519.54 704.85 520.27L706.56 502.73ZM706.66 536.86C720.8 536.86 728.95 545.15 727.66 558.86V558.64C727.152 563.652 726.103 568.595 724.53 573.38H665.36L666.24 564.49H685.11C687.47 564.49 690.73 564.49 692.89 565.23C687.89 563.08 685.18 558.23 685.89 552.14C686.78 542.29 694.18 536.88 706.62 536.88L706.66 536.86ZM706.56 546.03C698.27 546.03 693.56 548.63 693.01 554.19C692.26 560.84 699.68 564.48 706.56 564.48H719.22C719.976 562.394 720.441 560.214 720.6 558C721.36 550.93 717.44 546.12 706.48 546L706.56 546.03Z" fill="white"/>
</g>
<defs>
<clipPath id="clip0_2_3744">
<rect width="1024" height="1024" fill="white"/>
</clipPath>
</defs>
</svg>

<svg xmlns="http://www.w3.org/2000/svg" width="1024" height="1024" fill="none">
   <g clip-path="url(#a)">
      <path fill="#FF837D" d="M512 1024c282.77 0 512-229.23 512-512S794.77 0 512 0 0 229.23 0 512s229.23 512 512 512Z"/>
      <path fill="#fff" d="M286.35 320.4c-21.38 0-53.6 21.69-53.6 57.52 0 44.26 39.31 59.45 52.86 59.45h217.95v.1L487.5 604.91c-3 40.06 12.08 60.63 21.39 71.44 17 19.84 48.51 35.39 84.71 41.9 1-10.66 32.27-334.68 32.27-334.76 1-16.65-3.77-31.17-14.87-43.82-13-14.81-32.05-19.26-40-19.26l-284.65-.01Zm365 33.91s-35.18 365.86-35.09 365.86c32.12 0 55.15-9.56 73.05-21.54C706 687.45 719 674.19 728.9 657.1a132.994 132.994 0 0 0 17.84-54.57l23.61-248.21-119-.01Zm64.26 24h28.64l-.81 8.8v-.22h-26.29c-5.11 0-8.29 1.41-8.73 6.15-.76 6.21 5.47 10.81 13.69 10.81h19.69l-.88 8.89h-40.87l.79-8.45c2.16 0 5.71 0 8 .74-5-2.45-8.22-7.47-7.48-14.44.89-9.4 7.11-12.28 14.22-12.28h.03Zm-29.38 45.23a5.012 5.012 0 0 1 3.812 1.706 5.005 5.005 0 0 1 1.188 4.004 6 6 0 0 1-6.07 5.71 4.996 4.996 0 0 1-5-5.71c-.02-3.12 3-5.72 6.05-5.72l.02.01Zm12.65 1.32h40.92l-.9 8.9H698l.88-8.9Zm-21.23 21h60.11l-.89 8.9h-60.14l.92-8.9Zm-318 15.42s-19 196-21.69 225.18v.1h105.88l21.69-225.25-105.88-.03Zm334.91 1.32 8.45.74c.03-.178.081-.352.15-.52v.53H703c-2 7.86 3.36 11.7 15.39 11.7h16.58L734 484h-40.84l.81-8.52a33.44 33.44 0 0 1 8.95.88c-5.32-1.84-10-6-8.43-13.69l.07-.07Zm13.93 31.23h5v.38l-2.52 26.2c9.32 0 13.76-3.7 14.59-12.15a24.888 24.888 0 0 0-1.2-11.91l6.89-1.2a39.797 39.797 0 0 1 1.26 14.67c-1.26 12.72-8.44 19.76-22.87 19.76-12.29 0-20.88-7.11-19.77-19 1.11-11.89 9.23-16.73 18.55-16.73l.07-.02Zm-1.93 8.9c-5.78 0-9.7 3.12-10.22 8.29-.75 5 2.89 8.52 8.51 9.25l1.71-17.54Zm.1 34.13c14.14 0 22.29 8.29 21 22v-.22a69.712 69.712 0 0 1-3.13 14.74h-59.17l.88-8.89h18.87c2.36 0 5.62 0 7.78.74-5-2.15-7.71-7-7-13.09.89-9.85 8.29-15.26 20.73-15.26l.04-.02Zm-.1 9.17c-8.29 0-13 2.6-13.55 8.16-.75 6.65 6.67 10.29 13.55 10.29h12.66a24.078 24.078 0 0 0 1.38-6.48c.76-7.07-3.16-11.88-14.12-12l.08.03Z"/>
   </g>
   <defs>
      <clipPath id="a">
         <path fill="#fff" d="M0 0h1024v1024H0z"/>
      </clipPath>
   </defs>
</svg>
